X:24
T: WO EIN ALTAR STEHT DEN DER LENZ BEKRAENZT
N: B0027
O: Europa, Mitteleuropa, Deutschland; Frankreich, Elsass
R: politisch, national, Vaterlands - Lied
M: 4/4
L: 1/8
K: Eb
 | E2G2F2A2 | G3AB4 |
B3cB2G2 | F6z2 |
F2B2=A2c2 | B4e4 |
d3B=A2dc | B4z2
BB | B4c2d2 | e4d2c2 |
B3GA2c2 | F6z2 |
G3GB2B2 | c2e2dcBA |
G4B2A2 | G4z2
BB | B4c2d2 | e4d2c2 |
B3GA2c2 | F6z2 |
G3GA2B2 | c2e2dcBA |
G4B2A2 | G4z4

@@@ Tune index: 1827
